www/assets/icons/ramp_left.svg

<svg xmlns="http://www.w3.org/2000/svg" width="24" height="24" viewBox="0 0 24 24" fill='currentColor'><path d="M11.5 21h-2V6.83L7.91 8.41 6.5 7l4-4 4 4-1.41 1.41-1.59-1.58V9c0 4.27 4.03 7.13 6 8.27l-1.46 1.46c-1.91-1.16-3.44-2.53-4.54-4.02z"/></svg>

<svg width="24" height="24" viewBox="0 0 24 24" xmlns="http://www.w3.org/2000/svg" fill='currentColor'><path d="M11.5 21H9.5V6.83L7.91 8.41L6.5 7L10.5 3L14.5 7L13.09 8.41L11.5 6.83V9C11.5 13.27 15.53 16.13 17.5 17.27L16.04 18.73C14.13 17.57 12.6 16.2 11.5 14.71V21Z"/></svg>
